images/telegram.svg

<svg width="25" height="25" viewBox="0 0 25 25" fill="none" xmlns="http://www.w3.org/2000/svg">
<rect width="25" height="25" rx="12.5" transform="matrix(-1 0 0 1 25 0)" fill="#22ADE9"/>
<g clip-path="url(#clip0)">
<path fill-rule="evenodd" clip-rule="evenodd" d="M15.4015 16.479C15.4015 16.479 15.1805 17.044 14.5735 16.7725L10.931 13.914L9.6065 13.259L7.377 12.49C7.377 12.49 7.035 12.366 7.002 12.095C6.9685 11.8235 7.388 11.6765 7.388 11.6765L16.2515 8.11849C16.2515 8.11849 16.98 7.79099 16.98 8.33349L15.4015 16.4785V16.479Z" fill="#FFFFFE"/>
<path fill-rule="evenodd" clip-rule="evenodd" d="M10.6515 16.3877C10.6515 16.3877 10.545 16.3777 10.4125 15.9477C10.28 15.5187 9.60649 13.2592 9.60649 13.2592L14.96 9.77918C14.96 9.77918 15.269 9.58718 15.258 9.77918C15.258 9.77918 15.313 9.81318 15.148 9.97168C14.982 10.1297 10.9425 13.8467 10.9425 13.8467" fill="#E6E6E6"/>
<path fill-rule="evenodd" clip-rule="evenodd" d="M12.328 15.0101L10.887 16.3551C10.887 16.3551 10.7745 16.4421 10.6515 16.3876L10.927 13.8901" fill="#CDCDCD"/>
</g>
<defs>
<clipPath id="clip0">
<rect width="10" height="9" fill="white" transform="translate(7 8)"/>
</clipPath>
</defs>
</svg>

<svg width="25" height="25" fill="none" xmlns="http://www.w3.org/2000/svg"><rect width="25" height="25" rx="12.5" transform="matrix(-1 0 0 1 25 0)" fill="#22ADE9"/><g clip-path="url(#clip0)" fill-rule="evenodd" clip-rule="evenodd"><path d="M15.402 16.479s-.221.565-.829.294l-3.642-2.859-1.324-.655-2.23-.769s-.342-.124-.375-.395c-.034-.272.386-.418.386-.418l8.864-3.559s.728-.327.728.215l-1.579 8.146z" fill="#FFFFFE"/><path d="M10.652 16.388s-.107-.01-.24-.44c-.132-.43-.806-2.689-.806-2.689l5.354-3.48s.309-.192.298 0c0 0 .055.034-.11.193-.166.158-4.205 3.875-4.205 3.875" fill="#E6E6E6"/><path d="M12.328 15.01l-1.441 1.345s-.113.087-.236.033l.276-2.498" fill="#CDCDCD"/></g><defs><clipPath id="clip0"><path fill="#fff" transform="translate(7 8)" d="M0 0h10v9H0z"/></clipPath></defs></svg>
